svgs/sharp-regular/camera-security.svg

<svg xmlns="http://www.w3.org/2000/svg" viewBox="0 0 448 512"><!--! Font Awesome Pro 6.6.0 by @fontawesome - https://fontawesome.com License - https://fontawesome.com/license (Commercial License) Copyright 2024 Fonticons, Inc. --><path d="M400 48l0 320-80 0-192 0-80 0L48 48l352 0zM346.7 416l53.3 0 48 0 0-48 0-320 0-48L400 0 48 0 0 0 0 48 0 368l0 48 48 0 53.3 0L74.7 464 48 512l54.9 0 242.2 0 54.9 0-26.7-48-26.7-48zm-54.9 0l26.7 48-188.8 0 26.7-48 135.5 0zM336 208a112 112 0 1 0 -224 0 112 112 0 1 0 224 0zM224 144a64 64 0 1 1 0 128 64 64 0 1 1 0-128z"/></svg>

<svg xmlns="http://www.w3.org/2000/svg" viewBox="0 0 448 512"><!--! Font Awesome Pro 6.4.2 by @fontawesome - https://fontawesome.com License - https://fontawesome.com/license (Commercial License) Copyright 2023 Fonticons, Inc. --><path d="M400 48V368H320 128 48V48H400zM346.7 416H400h48V368 48 0H400 48 0V48 368v48H48h53.3L74.7 464 48 512h54.9H345.1 400l-26.7-48-26.7-48zm-54.9 0l26.7 48H129.6l26.7-48H291.8zM336 208a112 112 0 1 0 -224 0 112 112 0 1 0 224 0zM224 144a64 64 0 1 1 0 128 64 64 0 1 1 0-128z"/></svg>
